X:1
T: Miss Jane Grant of Lynmore's Reel
C:William Marshall
R:Reel
Q: 232
K:F
M:4/4
L:1/8
|:C|F2 FB AB1/2c1/2 AF|F2 FA BG GB|F2 FB AB1/2c1/2 AF|BG EG AF FC|
F2 FB AB1/2c1/2 AF|F2 FA BG GB|F2 FA cA cA|BG EG AF F2|
af af bg bg|af af ec c2|af af bg bg|af cb af f2|
af af bg bg|af af ec ec|dB dB cA cA|BG Ec AF F:|
